X: 35564
T: Ruth Salter
R: strathspey
M: 4/4
K: Fdorian
B,>A,|(3G,B,E G>B =A>BG2|(3A,CE A>c =B>cA2|B,>=A, B,>D F>_A =A>B|c>B =A>BB2B>A,|
(3G,B,E G>B =A>BG2|(3A,CE A>c =B>cA2|(3DFB d>c B>A B>c|B2D2E2 F>E|
(3DFB (3dBF (3EGBe2|(3FAc (3ecA (3Bdf b>a|g>e c>g f>d B2|c2E2F2F>E|
(3DFB (3dBF (3EGBe2|(3FAc (3ecA (3Bdf b>a|g>f e>d c>B A>G|F2=A2B2||

